vendor/craftcms/cms/src/icons/solid/camera-movie.svg

<svg xmlns="http://www.w3.org/2000/svg" viewBox="0 0 576 512"><!--! Font Awesome Pro 6.7.2 by @fontawesome - https://fontawesome.com License - https://fontawesome.com/license (Commercial License) Copyright 2024 Fonticons, Inc. --><path d="M128 64a64 64 0 1 0 0 128 64 64 0 1 0 0-128zM352 256l-224 0C57.3 256 0 198.7 0 128S57.3 0 128 0c48.2 0 90.2 26.6 112 66C261.8 26.6 303.8 0 352 0c70.7 0 128 57.3 128 128s-57.3 128-128 128zm0-192a64 64 0 1 0 0 128 64 64 0 1 0 0-128zM558.3 259.4c10.8 5.4 17.7 16.5 17.7 28.6l0 192c0 12.1-6.8 23.2-17.7 28.6s-23.8 4.3-33.5-3l-64-48L448 448l0-16 0-96 0-16 12.8-9.6 64-48c9.7-7.3 22.7-8.4 33.5-3zM64 288l64 0 224 0c35.3 0 64 28.7 64 64l0 96c0 35.3-28.7 64-64 64l-224 0c-35.3 0-64-28.7-64-64l0-96-32 0c-17.7 0-32-14.3-32-32s14.3-32 32-32l32 0z"/></svg>

<svg xmlns="http://www.w3.org/2000/svg" viewBox="0 0 576 512"><!--! Font Awesome Pro 6.5.1 by @fontawesome - https://fontawesome.com License - https://fontawesome.com/license (Commercial License) Copyright 2023 Fonticons, Inc. --><path d="M128 64a64 64 0 1 0 0 128 64 64 0 1 0 0-128zM352 256H128C57.3 256 0 198.7 0 128S57.3 0 128 0c48.2 0 90.2 26.6 112 66C261.8 26.6 303.8 0 352 0c70.7 0 128 57.3 128 128s-57.3 128-128 128zm0-192a64 64 0 1 0 0 128 64 64 0 1 0 0-128zM558.3 259.4c10.8 5.4 17.7 16.5 17.7 28.6V480c0 12.1-6.8 23.2-17.7 28.6s-23.8 4.3-33.5-3l-64-48L448 448V432 336 320l12.8-9.6 64-48c9.7-7.3 22.7-8.4 33.5-3zM64 288h64H352c35.3 0 64 28.7 64 64v96c0 35.3-28.7 64-64 64H128c-35.3 0-64-28.7-64-64V352H32c-17.7 0-32-14.3-32-32s14.3-32 32-32H64z"/></svg>
